X: 953
T: All Hands Around
R: reel
M: 4/4
K: Dmajor
|:D2 FB A2 FA|dAFA GE E2|D2 FB A2 FB|AGEF D2 FE|
D2 FB A2 FA|dAFA GE E2|DFEG (3FGA Bd|cAGE D3 z:|
|:fedf e2 ce|dcBd cA A2|fedf e2 ce|dcBc A2 de|
fedf e2 ce|dcBd cAFE|DFEG (3FGA Bd|cAGE D3 z:|

